src/pos-icons/filter-outline.svg

<svg height="24" viewBox="0 0 24 24" width="24" xmlns="http://www.w3.org/2000/svg"><path d="m15 19.88c.04.3-.06.62-.29.83-.39.39-1.02.39-1.41 0l-4.01-4.01c-.23-.23-.33-.54-.29-.83v-5.12l-4.79-6.13c-.34-.43-.26-1.06.17-1.4.19-.14.4-.22.62-.22h14c.22 0 .43.08.62.22.43.34.51.97.17 1.4l-4.79 6.13zm-7.96-14.88 3.96 5.06v5.52l2 2v-7.53l3.96-5.05z"/></svg>

<?xml version="1.0" encoding="UTF-8"?><!DOCTYPE svg PUBLIC "-//W3C//DTD SVG 1.1//EN" "http://www.w3.org/Graphics/SVG/1.1/DTD/svg11.dtd"><svg xmlns="http://www.w3.org/2000/svg" xmlns:xlink="http://www.w3.org/1999/xlink" version="1.1" id="mdi-filter-outline" width="24" height="24" viewBox="0 0 24 24"><path d="M15,19.88C15.04,20.18 14.94,20.5 14.71,20.71C14.32,21.1 13.69,21.1 13.3,20.71L9.29,16.7C9.06,16.47 8.96,16.16 9,15.87V10.75L4.21,4.62C3.87,4.19 3.95,3.56 4.38,3.22C4.57,3.08 4.78,3 5,3V3H19V3C19.22,3 19.43,3.08 19.62,3.22C20.05,3.56 20.13,4.19 19.79,4.62L15,10.75V19.88M7.04,5L11,10.06V15.58L13,17.58V10.05L16.96,5H7.04Z" /></svg>
